X: 4037
T: Blarney Pilgrim, The
R: jig
M: 6/8
K: Dmixolydian
|:DED DEG|A2A ABc|BAG AGE|GEA GED|
DED DEG|A2A ABc|BAG AGE|GED D3:|
ded dBG|AGA BGE|ded dBG|AGA B3|
g2e dBG|AGA B2d|dcB AGE|GED D3:|
A2D B2D|A2D ABc|BAG AGE|GEA GED|
ADD BDD|ADD ABc|BAG AGE|GED D3:|

